X:30
T:Cronin's Hornpipe
R:Hornpipe
M:4/4
L:1/8
K:G
BA|:GABd dBde|gage dega|bage dBGB|BAAG A2 BA|GABd dBde|gage dega|bage dB
AB|1G2 GF G2 BA:|2G2 GF G2 FG|:add^c d2 ga|beed e2 ga|bgaf gedB|BAAG AcB
A|GABd dBde|gage dega|bage dBAB|1G2 GF G2 FG:|2G2 GF G2 BA||
